icons/fill-new-food-ice-cream-square.svg

<svg xmlns="http://www.w3.org/2000/svg" width="32px" height="32px" viewBox="0 0 32 32" version="1.1">
    <title>fill-new-food-ice-cream-square</title>
    <g id="fill-new-food-ice-cream-square" stroke-width="1" fill-rule="evenodd">
        <path d="M21,2 C22.6568542,2 24,3.34314575 24,5 L24,19 C24,20.6568542 22.6568542,22 21,22 L18,22 L18,28 C18,29.1045695 17.1045695,30 16,30 C14.8954305,30 14,29.1045695 14,28 L14,22 L11,22 C9.34314575,22 8,20.6568542 8,19 L8,5 C8,3.34314575 9.34314575,2 11,2 L21,2 Z" id="&#36335;&#24452;" />
    </g>
</svg>

<svg xmlns="http://www.w3.org/2000/svg" viewBox="0 0 32 32"><path fill="currentColor" d="M21 2a3 3 0 0 1 3 3v14a3 3 0 0 1-3 3h-3v6a2 2 0 1 1-4 0v-6h-3a3 3 0 0 1-3-3V5a3 3 0 0 1 3-3z"/></svg>
